; generated by Slic3r 1.3.1-dev on 2019-06-17 at 21:53:07

; external perimeters extrusion width = 0.44mm (5.63mm^3/s)
; perimeters extrusion width = 0.48mm (7.54mm^3/s)
; infill extrusion width = 0.48mm (10.05mm^3/s)
; solid infill extrusion width = 0.48mm (6.28mm^3/s)
; top infill extrusion width = 0.48mm (6.28mm^3/s)

M107
M104 S210 ; set temperature
G28 ; home all axes
G1 Z5 F5000 ; lift nozzle

; Filament gcode

M109 S210 ; set temperature and wait for it to be reached
G21 ; set units to millimeters
G90 ; use absolute coordinates
M82 ; use absolute distances for extrusion
G92 E0
G92 E0
G1 Z0.200 F7800.000
G1 E-3.00000 F2400.00000
G92 E0
G1 Z1.200 F7800.000
G1 X81.622 Y85.488 F7800.000
G1 Z0.200 F7800.000
G1 E3.00000 F2400.00000
G1 F1800
G1 X82.770 Y84.420 E3.08146
G1 X83.881 Y83.570 E3.15415
G1 X85.488 Y82.561 E3.25273
G1 X87.031 Y81.776 E3.34272
G1 X88.528 Y81.145 E3.42714
G1 X90.433 Y80.496 E3.53166
G1 X92.259 Y80.011 E3.62987
G1 X94.153 Y79.630 E3.73024
G1 X96.096 Y79.358 E3.83215
G1 X97.941 Y79.203 E3.92836
G1 X100.066 Y79.144 E4.03882
G1 X102.059 Y79.203 E4.14245
G1 X104.039 Y79.373 E4.24568
G1 X105.847 Y79.630 E4.34057
G1 X107.741 Y80.011 E4.44094
G1 X109.567 Y80.496 E4.53915
G1 X111.315 Y81.086 E4.63499
G1 X113.130 Y81.851 E4.73734
G1 X114.512 Y82.561 E4.81807
G1 X115.938 Y83.444 E4.90521
G1 X117.230 Y84.420 E4.98935
G1 X117.419 Y84.580 E5.00220
G1 X118.424 Y85.533 E5.07417
G1 X119.364 Y86.647 E5.14991
G1 X119.548 Y86.900 E5.16616
G1 X120.176 Y87.897 E5.22739
G1 X120.338 Y88.201 E5.24529
G1 X120.791 Y89.227 E5.30357
G1 X120.915 Y89.582 E5.32312
G1 X121.189 Y90.629 E5.37936
G1 X121.257 Y91.024 E5.40016
G1 X121.357 Y92.283 E5.46579
G1 X121.357 Y177.717 E9.90492
G1 X121.257 Y178.976 E9.97056
G1 X121.189 Y179.371 E9.99135
G1 X120.915 Y180.418 E10.04759
G1 X120.791 Y180.773 E10.06714
G1 X120.338 Y181.799 E10.12542
G1 X120.176 Y182.103 E10.14332
G1 X119.548 Y183.100 E10.20455
G1 X119.365 Y183.353 E10.22079
G1 X118.567 Y184.309 E10.28548
G1 X118.378 Y184.511 E10.29989
G1 X117.230 Y185.580 E10.38135
G1 X115.938 Y186.556 E10.46549
G1 X114.512 Y187.439 E10.55263
G1 X113.130 Y188.149 E10.63336
G1 X111.315 Y188.914 E10.73572
G1 X109.567 Y189.504 E10.83155
G1 X107.881 Y189.956 E10.92225
G1 X105.847 Y190.370 E11.03014
G1 X103.904 Y190.642 E11.13205
G1 X101.928 Y190.804 E11.23509
G1 X100.066 Y190.856 E11.33188
G1 X98.072 Y190.804 E11.43551
G1 X95.961 Y190.627 E11.54557
G1 X94.015 Y190.346 E11.64773
G1 X92.259 Y189.989 E11.74084
G1 X90.433 Y189.504 E11.83905
G1 X88.685 Y188.914 E11.93488
G1 X86.870 Y188.149 E12.03724
G1 X85.314 Y187.340 E12.12835
G1 X84.062 Y186.556 E12.20511
G1 X82.770 Y185.580 E12.28925
G1 X81.622 Y184.512 E12.37071
G1 X81.433 Y184.309 E12.38512
G1 X80.636 Y183.353 E12.44979
G1 X80.452 Y183.100 E12.46605
G1 X79.824 Y182.103 E12.52727
G1 X79.662 Y181.799 E12.54518
G1 X79.209 Y180.773 E12.60345
G1 X79.085 Y180.418 E12.62301
G1 X78.811 Y179.371 E12.67924
G1 X78.743 Y178.976 E12.70005
G1 X78.643 Y177.717 E12.76568
G1 X78.643 Y92.283 E17.20481
G1 X78.743 Y91.024 E17.27044
G1 X78.811 Y90.629 E17.29124
G1 X79.085 Y89.582 E17.34748
G1 X79.209 Y89.227 E17.36703
G1 X79.662 Y88.201 E17.42531
G1 X79.824 Y87.897 E17.44321
G1 X80.452 Y86.900 E17.50444
G1 X80.636 Y86.647 E17.52069
G1 X81.579 Y85.530 E17.59666
G1 E14.59666 F2400.00000
G92 E0
G1 Z1.200 F7800.000
G1 X102.234 Y181.095 F7800.000
G1 Z0.200 F7800.000
G1 E3.00000 F2400.00000
G1 F1800
G1 X102.378 Y182.000 E3.04763
G1 X102.234 Y182.905 E3.09526
G1 X101.817 Y183.721 E3.14287
G1 X101.170 Y184.368 E3.19042
G1 X100.354 Y184.785 E3.23802
G1 X99.449 Y184.929 E3.28566
G1 X98.544 Y184.785 E3.33329
G1 X97.728 Y184.368 E3.38089
G1 X97.080 Y183.721 E3.42848
G1 X96.665 Y182.905 E3.47606
G1 X96.521 Y182.000 E3.52366
G1 X96.665 Y181.095 E3.57125
G1 X97.080 Y180.279 E3.61884
G1 X97.728 Y179.631 E3.66646
G1 X98.544 Y179.216 E3.71404
G1 X99.398 Y179.081 E3.75893
G1 X100.345 Y179.211 E3.80865
G1 X101.170 Y179.631 E3.85671
G1 X101.817 Y180.279 E3.90430
G1 X102.207 Y181.041 E3.94879
G1 X101.890 Y181.206 F7800.000
G1 F1800
G1 X102.016 Y182.000 E3.99053
G1 X101.890 Y182.794 E4.03228
G1 X101.525 Y183.509 E4.07401
G1 X100.958 Y184.076 E4.11570
G1 X100.243 Y184.441 E4.15742
G1 X99.449 Y184.567 E4.19917
G1 X98.655 Y184.441 E4.24092
G1 X97.940 Y184.076 E4.28264
G1 X97.373 Y183.508 E4.32436
G1 X97.009 Y182.793 E4.36606
G1 X96.883 Y182.000 E4.40779
G1 X97.009 Y181.207 E4.44951
G1 X97.373 Y180.492 E4.49121
G1 X97.941 Y179.924 E4.53295
G1 X98.656 Y179.560 E4.57465
G1 X99.401 Y179.442 E4.61386
G1 X100.237 Y179.557 E4.65771
G1 X100.957 Y179.924 E4.69970
G1 X101.525 Y180.491 E4.74142
G1 X101.863 Y181.153 E4.78003
G1 X101.547 Y181.318 F7800.000
G1 F1800
G1 X101.654 Y182.000 E4.81589
G1 X101.547 Y182.682 E4.85175
G1 X101.233 Y183.296 E4.88760
G1 X100.745 Y183.784 E4.92343
G1 X100.131 Y184.098 E4.95928
G1 X99.449 Y184.205 E4.99514
G1 X98.767 Y184.098 E5.03100
G1 X98.153 Y183.784 E5.06685
G1 X97.665 Y183.296 E5.10269
G1 X97.352 Y182.682 E5.13851
G1 X97.245 Y182.000 E5.17437
G1 X97.352 Y181.318 E5.21022
G1 X97.665 Y180.704 E5.24605
G1 X98.153 Y180.216 E5.28189
G1 X98.767 Y179.903 E5.31772
G1 X99.405 Y179.803 E5.35124
G1 X100.129 Y179.902 E5.38922
G1 X100.745 Y180.216 E5.42515
G1 X101.233 Y180.704 E5.46099
G1 X101.519 Y181.265 E5.49372
G1 X101.547 Y181.318 F7800.000
G1 E2.49372 F2400.00000
G92 E0
G1 Z1.200 F7800.000
G1 X111.917 Y152.916 F7800.000
G1 Z0.200 F7800.000
G1 E3.00000 F2400.00000
G1 F1800
G1 X84.084 Y152.916 E4.44621
G1 X84.084 Y118.084 E6.25609
G1 X111.917 Y118.084 E7.70230
G1 X111.917 Y152.856 E9.50907
G1 X111.560 Y152.559 F7800.000
G1 F1800
G1 X84.441 Y152.559 E10.91817
G1 X84.441 Y118.441 E12.69094
G1 X111.560 Y118.441 E14.10005
G1 X111.560 Y152.499 E15.86970
G1 X111.203 Y152.202 F7800.000
G1 F1800
G1 X84.798 Y152.202 E17.24170
G1 X84.798 Y118.798 E18.97736
G1 X111.203 Y118.798 E20.34936
G1 X111.203 Y152.142 E22.08191
G1 X111.291 Y152.592 F7800.000
G1 E19.08191 F2400.00000
G92 E0
G1 Z1.200 F7800.000
G1 X100.360 Y91.283 F7800.000
G1 Z0.200 F7800.000
G1 E3.00000 F2400.00000
G1 F1800
G1 X99.449 Y91.429 E3.04795
G1 X98.544 Y91.284 E3.09559
G1 X97.728 Y90.869 E3.14314
G1 X97.080 Y90.221 E3.19076
G1 X96.665 Y89.405 E3.23834
G1 X96.521 Y88.500 E3.28593
G1 X96.665 Y87.595 E3.33353
G1 X97.080 Y86.779 E3.38111
G1 X97.728 Y86.131 E3.42873
G1 X98.544 Y85.716 E3.47631
G1 X99.408 Y85.579 E3.52177
G1 X100.347 Y85.712 E3.57104
G1 X101.170 Y86.131 E3.61901
G1 X101.817 Y86.779 E3.66660
G1 X102.234 Y87.595 E3.71420
G1 X102.378 Y88.500 E3.76183
G1 X102.234 Y89.405 E3.80946
G1 X101.817 Y90.221 E3.85707
G1 X101.193 Y90.846 E3.90298
G1 X100.413 Y91.255 E3.94871
G1 X100.246 Y90.940 F7800.000
G1 F1800
G1 X99.449 Y91.067 E3.99065
G1 X98.655 Y90.940 E4.03241
G1 X97.941 Y90.576 E4.07409
G1 X97.373 Y90.008 E4.11583
G1 X97.009 Y89.293 E4.15753
G1 X96.883 Y88.500 E4.19925
G1 X97.009 Y87.707 E4.24098
G1 X97.373 Y86.992 E4.28268
G1 X97.941 Y86.424 E4.32442
G1 X98.656 Y86.060 E4.36612
G1 X99.411 Y85.940 E4.40585
G1 X100.238 Y86.057 E4.44925
G1 X100.957 Y86.424 E4.49119
G1 X101.525 Y86.991 E4.53291
G1 X101.890 Y87.706 E4.57463
G1 X102.016 Y88.500 E4.61638
G1 X101.890 Y89.294 E4.65812
G1 X101.525 Y90.009 E4.69985
G1 X100.979 Y90.555 E4.74001
G1 X100.299 Y90.912 E4.77988
G1 X100.132 Y90.596 F7800.000
G1 F1800
G1 X99.449 Y90.706 E4.81581
G1 X98.767 Y90.597 E4.85168
G1 X98.153 Y90.284 E4.88750
G1 X97.665 Y89.796 E4.92335
G1 X97.352 Y89.182 E4.95917
G1 X97.245 Y88.500 E4.99503
G1 X97.352 Y87.818 E5.03088
G1 X97.665 Y87.204 E5.06670
G1 X98.153 Y86.716 E5.10255
G1 X98.767 Y86.403 E5.13838
G1 X99.414 Y86.301 E5.17239
G1 X100.129 Y86.403 E5.20992
G1 X100.745 Y86.716 E5.24583
G1 X101.233 Y87.204 E5.28167
G1 X101.547 Y87.818 E5.31752
G1 X101.654 Y88.500 E5.35338
G1 X101.547 Y89.182 E5.38924
G1 X101.233 Y89.796 E5.42509
G1 X100.765 Y90.264 E5.45949
G1 X100.185 Y90.568 E5.49350
G1 X100.132 Y90.596 F7800.000
G1 E2.49350 F2400.00000
G92 E0
G1 Z1.200 F7800.000
G1 X100.360 Y82.425 F7800.000
G1 Z0.200 F7800.000
G1 E3.00000 F2400.00000
G1 F1800
G1 X101.765 Y82.464 E3.07303
G1 X103.605 Y82.616 E3.16895
G1 X105.359 Y82.865 E3.26104
G1 X107.061 Y83.211 E3.35127
G1 X108.691 Y83.648 E3.43895
G1 X110.231 Y84.172 E3.52345
G1 X111.666 Y84.777 E3.60438
G1 X112.983 Y85.453 E3.68129
G1 X114.166 Y86.194 E3.75381
G1 X115.204 Y86.989 E3.82177
G1 X116.089 Y87.827 E3.88510
G1 X116.813 Y88.695 E3.94381
G1 X117.373 Y89.584 E3.99839
G1 X117.769 Y90.481 E4.04938
G1 X118.005 Y91.382 E4.09776
G1 X118.086 Y92.322 E4.14680
G1 X118.086 Y177.678 E8.58185
G1 X118.005 Y178.618 E8.63088
G1 X117.769 Y179.519 E8.67926
G1 X117.373 Y180.416 E8.73025
G1 X116.813 Y181.305 E8.78484
G1 X116.089 Y182.173 E8.84355
G1 X115.204 Y183.011 E8.90687
G1 X114.166 Y183.806 E8.97484
G1 X112.983 Y184.547 E9.04735
G1 X111.666 Y185.223 E9.12427
G1 X110.231 Y185.828 E9.20519
G1 X108.691 Y186.352 E9.28970
G1 X107.061 Y186.789 E9.37737
G1 X105.359 Y187.135 E9.46761
G1 X103.604 Y187.384 E9.55972
G1 X101.811 Y187.535 E9.65324
G1 X100.000 Y187.585 E9.74737
G1 X98.189 Y187.535 E9.84150
G1 X96.396 Y187.384 E9.93501
G1 X94.641 Y187.135 E10.02713
G1 X92.939 Y186.789 E10.11737
G1 X91.309 Y186.352 E10.20504
G1 X89.769 Y185.828 E10.28954
G1 X88.334 Y185.223 E10.37047
G1 X87.017 Y184.547 E10.44739
G1 X85.834 Y183.806 E10.51990
G1 X84.796 Y183.011 E10.58786
G1 X83.911 Y182.173 E10.65119
G1 X83.187 Y181.305 E10.70990
G1 X82.627 Y180.416 E10.76448
G1 X82.231 Y179.519 E10.81547
G1 X81.995 Y178.618 E10.86386
G1 X81.914 Y177.678 E10.91289
G1 X81.914 Y92.322 E15.34794
G1 X81.995 Y91.382 E15.39697
G1 X82.231 Y90.481 E15.44535
G1 X82.627 Y89.584 E15.49635
G1 X83.187 Y88.695 E15.55093
G1 X83.911 Y87.827 E15.60964
G1 X84.796 Y86.989 E15.67297
G1 X85.834 Y86.194 E15.74093
G1 X87.017 Y85.453 E15.81344
G1 X88.334 Y84.777 E15.89036
G1 X89.769 Y84.172 E15.97128
G1 X91.309 Y83.648 E16.05579
G1 X92.939 Y83.211 E16.14346
G1 X94.641 Y82.865 E16.23370
G1 X96.396 Y82.616 E16.32582
G1 X98.189 Y82.465 E16.41933
G1 X100.000 Y82.415 E16.51346
G1 X100.300 Y82.423 E16.52906
G1 X100.370 Y82.068 F7800.000
G1 F1800
G1 X101.785 Y82.107 E16.60259
G1 X103.645 Y82.261 E16.69957
G1 X105.420 Y82.513 E16.79275
G1 X107.143 Y82.864 E16.88411
G1 X108.795 Y83.306 E16.97297
G1 X110.358 Y83.838 E17.05874
G1 X111.817 Y84.453 E17.14103
G1 X113.159 Y85.143 E17.21944
G1 X114.369 Y85.900 E17.29361
G1 X115.436 Y86.717 E17.36341
G1 X116.350 Y87.582 E17.42881
G1 X117.102 Y88.484 E17.48985
G1 X117.689 Y89.415 E17.54702
G1 X118.107 Y90.363 E17.60086
G1 X118.358 Y91.321 E17.65231
G1 X118.443 Y92.307 E17.70372
G1 X118.443 Y177.693 E22.14037
G1 X118.358 Y178.679 E22.19178
G1 X118.107 Y179.637 E22.24323
G1 X117.689 Y180.585 E22.29706
G1 X117.102 Y181.516 E22.35424
G1 X116.350 Y182.418 E22.41528
G1 X115.436 Y183.283 E22.48067
G1 X114.369 Y184.100 E22.55048
G1 X113.159 Y184.857 E22.62465
G1 X111.817 Y185.547 E22.70306
G1 X110.358 Y186.162 E22.78535
G1 X108.795 Y186.694 E22.87112
G1 X107.143 Y187.136 E22.95998
G1 X105.420 Y187.487 E23.05134
G1 X103.644 Y187.739 E23.14453
G1 X101.831 Y187.892 E23.23910
G1 X100.000 Y187.943 E23.33427
G1 X98.169 Y187.892 E23.42944
G1 X96.356 Y187.739 E23.52400
G1 X94.580 Y187.487 E23.61720
G1 X92.857 Y187.136 E23.70856
G1 X91.205 Y186.694 E23.79741
G1 X89.642 Y186.162 E23.88319
G1 X88.183 Y185.547 E23.96548
G1 X86.841 Y184.857 E24.04388
G1 X85.631 Y184.100 E24.11805
G1 X84.564 Y183.283 E24.18786
G1 X83.650 Y182.418 E24.25325
G1 X82.898 Y181.516 E24.31429
G1 X82.311 Y180.585 E24.37147
G1 X81.893 Y179.637 E24.42531
G1 X81.642 Y178.679 E24.47676
G1 X81.557 Y177.693 E24.52817
G1 X81.557 Y92.307 E28.96481
G1 X81.642 Y91.321 E29.01623
G1 X81.893 Y90.363 E29.06767
G1 X82.311 Y89.415 E29.12151
G1 X82.898 Y88.484 E29.17869
G1 X83.650 Y87.582 E29.23973
G1 X84.564 Y86.717 E29.30512
G1 X85.631 Y85.900 E29.37493
G1 X86.841 Y85.143 E29.44910
G1 X88.183 Y84.453 E29.52751
G1 X89.642 Y83.838 E29.60979
G1 X91.205 Y83.306 E29.69557
G1 X92.857 Y82.864 E29.78442
G1 X94.580 Y82.513 E29.87578
G1 X96.356 Y82.261 E29.96898
G1 X98.169 Y82.108 E30.06354
G1 X100.000 Y82.057 E30.15871
G1 X100.310 Y82.066 E30.17483
G1 X100.380 Y81.711 F7800.000
G1 F1800
G1 X101.804 Y81.750 E30.24887
G1 X103.685 Y81.906 E30.34690
G1 X105.481 Y82.161 E30.44118
G1 X107.225 Y82.516 E30.53366
G1 X108.899 Y82.964 E30.62369
G1 X110.485 Y83.504 E30.71074
G1 X111.968 Y84.129 E30.79439
G1 X113.336 Y84.832 E30.87429
G1 X114.573 Y85.607 E30.95011
G1 X115.668 Y86.444 E31.02176
G1 X116.611 Y87.337 E31.08923
G1 X117.392 Y88.274 E31.15259
G1 X118.005 Y89.247 E31.21237
G1 X118.446 Y90.245 E31.26905
G1 X118.711 Y91.260 E31.32356
G1 X118.800 Y92.292 E31.37736
G1 X118.800 Y177.708 E35.81559
G1 X118.711 Y178.740 E35.86939
G1 X118.446 Y179.755 E35.92390
G1 X118.005 Y180.753 E35.98058
G1 X117.392 Y181.726 E36.04036
G1 X116.611 Y182.663 E36.10372
G1 X115.668 Y183.556 E36.17119
G1 X114.573 Y184.393 E36.24284
G1 X113.336 Y185.168 E36.31866
G1 X111.968 Y185.871 E36.39856
G1 X110.485 Y186.496 E36.48221
G1 X108.899 Y187.036 E36.56926
G1 X107.225 Y187.484 E36.65929
G1 X105.481 Y187.839 E36.75177
G1 X103.685 Y188.094 E36.84605
G1 X101.851 Y188.248 E36.94167
G1 X100.000 Y188.300 E37.03788
G1 X98.149 Y188.248 E37.13408
G1 X96.315 Y188.094 E37.22970
G1 X94.519 Y187.839 E37.32398
G1 X92.775 Y187.484 E37.41646
G1 X91.101 Y187.036 E37.50649
G1 X89.515 Y186.496 E37.59354
G1 X88.032 Y185.871 E37.67719
G1 X86.664 Y185.168 E37.75709
G1 X85.427 Y184.393 E37.83291
G1 X84.332 Y183.556 E37.90457
G1 X83.389 Y182.663 E37.97203
G1 X82.608 Y181.726 E38.03540
G1 X81.995 Y180.753 E38.09517
G1 X81.554 Y179.755 E38.15185
G1 X81.289 Y178.740 E38.20636
G1 X81.200 Y177.708 E38.26016
G1 X81.200 Y92.292 E42.69839
G1 X81.289 Y91.260 E42.75219
G1 X81.554 Y90.245 E42.80670
G1 X81.995 Y89.247 E42.86338
G1 X82.608 Y88.274 E42.92316
G1 X83.389 Y87.337 E42.98652
G1 X84.332 Y86.444 E43.05399
G1 X85.427 Y85.607 E43.12564
G1 X86.664 Y84.832 E43.20147
G1 X88.032 Y84.129 E43.28136
G1 X89.515 Y83.504 E43.36501
G1 X91.101 Y82.964 E43.45206
G1 X92.775 Y82.516 E43.54209
G1 X94.519 Y82.161 E43.63457
G1 X96.315 Y81.906 E43.72886
G1 X98.149 Y81.752 E43.82447
G1 X100.000 Y81.700 E43.92068
G1 X100.320 Y81.709 E43.93731
G1 X100.576 Y82.060 F7800.000
G1 E40.93731 F2400.00000
G92 E0
G1 Z1.200 F7800.000
G1 X96.902 Y86.475 F7800.000
G1 Z0.200 F7800.000
G1 E3.00000 F2400.00000
G1 F1800
G1 X82.132 Y101.245 E4.08772
G1 X82.132 Y101.751 E4.11408
G1 X96.445 Y87.439 E5.16812
G1 X96.350 Y88.040 E5.19982
G1 X82.132 Y102.257 E6.24685
G1 X82.132 Y102.764 E6.27320
G1 X96.331 Y88.565 E7.31886
G1 X96.400 Y89.002 E7.34190
G1 X82.132 Y103.270 E8.39265
G1 X82.132 Y103.776 E8.41901
G1 X96.484 Y89.424 E9.47590
G1 X96.654 Y89.760 E9.49550
G1 X82.132 Y104.282 E10.56496
G1 X82.132 Y104.788 E10.59132
G1 X96.825 Y90.095 E11.67336
G1 X96.926 Y90.294 E11.68499
G1 X97.029 Y90.397 E11.69256
G1 X82.132 Y105.294 E12.78963
G1 X82.132 Y105.800 E12.81599
G1 X97.282 Y90.650 E13.93170
G1 X97.535 Y90.903 E13.95033
G1 X82.132 Y106.306 E15.08467
G1 X82.132 Y106.812 E15.11103
G1 X97.832 Y91.113 E16.26721
G1 X98.167 Y91.284 E16.28681
G1 X82.132 Y107.318 E17.46770
G1 X82.132 Y107.825 E17.49405
G1 X98.503 Y91.454 E18.69964
G1 X98.571 Y91.489 E18.70361
G1 X98.919 Y91.544 E18.72196
G1 X82.132 Y108.331 E19.95817
G1 X82.132 Y108.837 E19.98453
G1 X99.355 Y91.614 E21.25287
G1 X99.588 Y91.651 E21.26516
G1 X99.869 Y91.607 E21.27996
G1 X82.132 Y109.343 E22.58614
G1 X82.132 Y109.849 E22.61250
G1 X100.471 Y91.510 E23.96305
G1 X100.613 Y91.488 E23.97054
G1 X101.427 Y91.060 E24.01840
G1 X82.132 Y110.355 E25.43934
G1 X82.132 Y110.861 E25.46570
G1 X109.037 Y83.957 E27.44706
G1 X109.414 Y84.085 E27.46783
G1 X82.132 Y111.367 E29.47701
G1 X82.132 Y111.873 E29.50336
G1 X109.792 Y84.214 E31.54035
G1 X110.170 Y84.342 E31.56112
G1 X82.132 Y112.379 E33.62591
G1 X82.132 Y112.886 E33.65227
G1 X110.530 Y84.488 E35.74359
G1 X110.886 Y84.638 E35.76371
G1 X82.132 Y113.392 E37.88125
G1 X82.132 Y113.898 E37.90761
G1 X111.242 Y84.788 E40.05137
G1 X111.598 Y84.938 E40.07149
G1 X82.132 Y114.404 E42.24147
G1 X82.132 Y114.910 E42.26783
G1 X111.936 Y85.107 E44.46268
G1 X112.270 Y85.278 E44.48225
