; generated by Slic3r 1.3.1-dev on 2019-06-18 at 17:47:00

; external perimeters extrusion width = 0.44mm (5.63mm^3/s)
; perimeters extrusion width = 0.48mm (7.54mm^3/s)
; infill extrusion width = 0.48mm (10.05mm^3/s)
; solid infill extrusion width = 0.48mm (6.28mm^3/s)
; top infill extrusion width = 0.48mm (6.28mm^3/s)

M107
M104 S210 ; set temperature
G28 ; home all axes
G1 Z5 F5000 ; lift nozzle

; Filament gcode

M109 S210 ; set temperature and wait for it to be reached
G21 ; set units to millimeters
G90 ; use absolute coordinates
M82 ; use absolute distances for extrusion
G92 E0
G92 E0
G1 Z0.200 F7800.000
G1 E-3.00000 F2400.00000
G92 E0
G1 Z1.200 F7800.000
G1 X81.630 Y85.928 F7800.000
G1 Z0.200 F7800.000
G1 E3.00000 F2400.00000
G1 F1800
G1 X82.778 Y84.868 E3.08119
G1 X83.889 Y84.026 E3.15363
G1 X85.495 Y83.029 E3.25186
G1 X87.039 Y82.250 E3.34170
G1 X88.536 Y81.625 E3.42599
G1 X90.438 Y80.983 E3.53029
G1 X92.264 Y80.502 E3.62844
G1 X94.156 Y80.126 E3.72863
G1 X96.097 Y79.856 E3.83047
G1 X97.942 Y79.702 E3.92667
G1 X99.936 Y79.644 E4.03030
G1 X101.927 Y79.695 E4.13378
G1 X104.036 Y79.871 E4.24378
G1 X105.844 Y80.126 E4.33866
G1 X107.736 Y80.502 E4.43886
G1 X109.562 Y80.983 E4.53701
G1 X111.309 Y81.566 E4.63269
G1 X113.123 Y82.325 E4.73484
G1 X114.505 Y83.029 E4.81544
G1 X115.929 Y83.902 E4.90221
G1 X117.222 Y84.868 E4.98610
G1 X117.411 Y85.028 E4.99897
G1 X118.424 Y85.980 E5.07120
G1 X119.357 Y87.076 E5.14601
G1 X119.543 Y87.329 E5.16227
G1 X120.171 Y88.316 E5.22306
G1 X120.335 Y88.622 E5.24112
G1 X120.788 Y89.639 E5.29897
G1 X120.914 Y89.996 E5.31863
G1 X121.188 Y91.033 E5.37437
G1 X121.257 Y91.431 E5.39535
G1 X121.357 Y92.682 E5.46057
G1 X121.357 Y177.318 E9.85824
G1 X121.257 Y178.569 E9.92346
G1 X121.188 Y178.967 E9.94444
G1 X120.914 Y180.004 E10.00018
G1 X120.788 Y180.361 E10.01984
G1 X120.335 Y181.378 E10.07769
G1 X120.171 Y181.684 E10.09575
G1 X119.543 Y182.671 E10.15654
G1 X119.357 Y182.924 E10.17280
G1 X118.560 Y183.871 E10.23712
G1 X118.370 Y184.072 E10.25150
G1 X117.222 Y185.131 E10.33269
G1 X115.929 Y186.098 E10.41658
G1 X114.505 Y186.971 E10.50336
G1 X113.123 Y187.675 E10.58395
G1 X111.309 Y188.434 E10.68611
G1 X109.562 Y189.017 E10.78179
G1 X107.876 Y189.465 E10.87244
G1 X105.844 Y189.874 E10.98014
G1 X103.903 Y190.144 E11.08197
G1 X101.927 Y190.305 E11.18501
G1 X100.000 Y190.357 E11.28515
G1 X98.073 Y190.305 E11.38529
G1 X96.097 Y190.144 E11.48833
G1 X94.020 Y189.851 E11.59730
G1 X92.264 Y189.498 E11.69036
G1 X90.438 Y189.017 E11.78852
G1 X88.691 Y188.434 E11.88420
G1 X86.877 Y187.675 E11.98635
G1 X85.323 Y186.874 E12.07718
G1 X84.071 Y186.098 E12.15372
G1 X82.778 Y185.132 E12.23761
G1 X81.630 Y184.072 E12.31880
G1 X81.440 Y183.871 E12.33319
G1 X80.643 Y182.924 E12.39750
G1 X80.457 Y182.671 E12.41377
G1 X79.829 Y181.684 E12.47456
G1 X79.665 Y181.378 E12.49262
G1 X79.212 Y180.361 E12.55047
G1 X79.086 Y180.004 E12.57013
G1 X78.812 Y178.967 E12.62586
G1 X78.743 Y178.569 E12.64686
G1 X78.643 Y177.318 E12.71207
G1 X78.643 Y92.682 E17.10974
G1 X78.743 Y91.431 E17.17495
G1 X78.812 Y91.033 E17.19594
G1 X79.086 Y89.996 E17.25167
G1 X79.212 Y89.639 E17.27134
G1 X79.665 Y88.622 E17.32919
G1 X79.829 Y88.316 E17.34725
G1 X80.457 Y87.329 E17.40803
G1 X80.643 Y87.076 E17.42430
G1 X81.587 Y85.970 E17.49988
G1 E14.49988 F2400.00000
G92 E0
G1 Z1.200 F7800.000
G1 X102.234 Y180.659 F7800.000
G1 Z0.200 F7800.000
G1 E3.00000 F2400.00000
G1 F1800
G1 X102.378 Y181.561 E3.04745
G1 X102.234 Y182.463 E3.09490
G1 X101.815 Y183.274 E3.14235
G1 X101.167 Y183.917 E3.18977
G1 X100.352 Y184.329 E3.23723
G1 X99.449 Y184.470 E3.28471
G1 X98.546 Y184.329 E3.33219
G1 X97.731 Y183.917 E3.37965
G1 X97.082 Y183.274 E3.42711
G1 X96.665 Y182.462 E3.47453
G1 X96.521 Y181.561 E3.52195
G1 X96.665 Y180.660 E3.56936
G1 X97.082 Y179.848 E3.61678
G1 X97.731 Y179.205 E3.66424
G1 X98.546 Y178.793 E3.71170
G1 X99.403 Y178.659 E3.75678
G1 X100.344 Y178.789 E3.80615
G1 X101.167 Y179.205 E3.85404
G1 X101.815 Y179.848 E3.90146
G1 X102.206 Y180.606 E3.94579
G1 X101.890 Y180.772 F7800.000
G1 F1800
G1 X102.016 Y181.561 E3.98730
G1 X101.890 Y182.350 E4.02882
G1 X101.524 Y183.061 E4.07036
G1 X100.956 Y183.624 E4.11191
G1 X100.241 Y183.985 E4.15353
G1 X99.449 Y184.109 E4.19518
G1 X98.657 Y183.985 E4.23683
G1 X97.942 Y183.624 E4.27844
G1 X97.374 Y183.060 E4.32002
G1 X97.009 Y182.350 E4.36153
G1 X96.883 Y181.561 E4.40303
G1 X97.009 Y180.772 E4.44452
G1 X97.374 Y180.062 E4.48604
G1 X97.942 Y179.498 E4.52761
G1 X98.657 Y179.137 E4.56923
G1 X99.406 Y179.020 E4.60864
G1 X100.236 Y179.135 E4.65218
G1 X100.956 Y179.498 E4.69405
G1 X101.524 Y180.061 E4.73561
G1 X101.863 Y180.719 E4.77403
G1 X101.546 Y180.885 F7800.000
G1 F1800
G1 X101.655 Y181.561 E4.80961
G1 X101.546 Y182.237 E4.84519
G1 X101.232 Y182.847 E4.88083
G1 X100.744 Y183.330 E4.91652
G1 X100.130 Y183.641 E4.95228
G1 X99.449 Y183.747 E4.98810
G1 X98.768 Y183.641 E5.02392
G1 X98.154 Y183.330 E5.05968
G1 X97.666 Y182.847 E5.09538
G1 X97.353 Y182.237 E5.13099
G1 X97.244 Y181.561 E5.16656
G1 X97.353 Y180.885 E5.20214
G1 X97.666 Y180.275 E5.23774
G1 X98.154 Y179.792 E5.27344
G1 X98.768 Y179.481 E5.30921
G1 X99.410 Y179.381 E5.34296
G1 X100.128 Y179.480 E5.38067
G1 X100.744 Y179.792 E5.41652
G1 X101.232 Y180.275 E5.45221
G1 X101.519 Y180.831 E5.48473
G1 X101.546 Y180.885 F7800.000
G1 E2.48473 F2400.00000
G92 E0
G1 Z1.200 F7800.000
G1 X111.917 Y152.917 F7800.000
G1 Z0.200 F7800.000
G1 E3.00000 F2400.00000
G1 F1800
G1 X85.083 Y152.917 E4.39430
G1 X85.083 Y118.233 E6.19649
G1 X111.917 Y118.233 E7.59080
G1 X111.917 Y152.857 E9.38987
G1 X111.560 Y152.560 F7800.000
G1 F1800
G1 X85.440 Y152.560 E10.74707
G1 X85.440 Y118.590 E12.51215
G1 X111.560 Y118.590 E13.86935
G1 X111.560 Y152.500 E15.63131
G1 X111.203 Y152.203 F7800.000
G1 F1800
G1 X85.797 Y152.203 E16.95140
G1 X85.797 Y118.947 E18.67937
G1 X111.203 Y118.947 E19.99946
G1 X111.203 Y152.143 E21.72432
G1 X111.289 Y152.594 F7800.000
G1 E18.72432 F2400.00000
G92 E0
G1 Z1.200 F7800.000
G1 X100.351 Y91.702 F7800.000
G1 Z0.200 F7800.000
G1 E3.00000 F2400.00000
G1 F1800
G1 X99.449 Y91.843 E3.04745
G1 X98.547 Y91.702 E3.09489
G1 X97.731 Y91.291 E3.14233
G1 X97.082 Y90.648 E3.18982
G1 X96.665 Y89.836 E3.23724
G1 X96.521 Y88.935 E3.28466
G1 X96.665 Y88.034 E3.33208
G1 X97.082 Y87.222 E3.37950
G1 X97.731 Y86.579 E3.42695
G1 X98.546 Y86.167 E3.47441
G1 X99.413 Y86.031 E3.51999
G1 X100.346 Y86.164 E3.56897
G1 X101.167 Y86.579 E3.61677
G1 X101.815 Y87.222 E3.66419
G1 X102.234 Y88.033 E3.71164
G1 X102.378 Y88.935 E3.75909
G1 X102.234 Y89.837 E3.80654
G1 X101.815 Y90.648 E3.85398
G1 X101.167 Y91.291 E3.90144
G1 X100.405 Y91.675 E3.94576
G1 X100.241 Y91.358 F7800.000
G1 F1800
G1 X99.449 Y91.482 E3.98739
G1 X98.657 Y91.358 E4.02902
G1 X97.943 Y90.998 E4.07061
G1 X97.374 Y90.434 E4.11221
G1 X97.009 Y89.724 E4.15372
G1 X96.883 Y88.935 E4.19522
G1 X97.009 Y88.146 E4.23671
G1 X97.374 Y87.436 E4.27823
G1 X97.942 Y86.872 E4.31980
G1 X98.657 Y86.511 E4.36141
G1 X99.415 Y86.392 E4.40130
G1 X100.237 Y86.509 E4.44444
G1 X100.956 Y86.872 E4.48626
G1 X101.524 Y87.435 E4.52781
G1 X101.890 Y88.146 E4.56935
G1 X102.016 Y88.935 E4.61087
G1 X101.890 Y89.724 E4.65238
G1 X101.524 Y90.435 E4.69392
G1 X100.955 Y90.998 E4.73550
G1 X100.294 Y91.331 E4.77397
G1 X100.130 Y91.014 F7800.000
G1 F1800
G1 X99.449 Y91.120 E4.80979
G1 X98.768 Y91.014 E4.84560
G1 X98.154 Y90.704 E4.88134
G1 X97.666 Y90.221 E4.91704
G1 X97.353 Y89.611 E4.95265
G1 X97.244 Y88.935 E4.98823
G1 X97.353 Y88.259 E5.02380
G1 X97.666 Y87.649 E5.05941
G1 X98.154 Y87.166 E5.09511
G1 X98.768 Y86.855 E5.13087
G1 X99.418 Y86.753 E5.16505
G1 X100.129 Y86.855 E5.20237
G1 X100.744 Y87.166 E5.23820
G1 X101.232 Y87.649 E5.27389
G1 X101.546 Y88.259 E5.30953
G1 X101.655 Y88.935 E5.34511
G1 X101.546 Y89.611 E5.38069
G1 X101.232 Y90.221 E5.41632
G1 X100.744 Y90.704 E5.45202
G1 X100.184 Y90.987 E5.48464
G1 X100.130 Y91.014 F7800.000
G1 E2.48464 F2400.00000
G92 E0
G1 Z1.200 F7800.000
G1 X100.352 Y82.924 F7800.000
G1 Z0.200 F7800.000
G1 E3.00000 F2400.00000
G1 F1800
G1 X101.771 Y82.963 E3.07376
G1 X103.606 Y83.114 E3.16943
G1 X105.361 Y83.361 E3.26154
G1 X107.063 Y83.704 E3.35177
G1 X108.693 Y84.137 E3.43940
G1 X110.233 Y84.656 E3.52385
G1 X111.669 Y85.255 E3.60467
G1 X112.986 Y85.926 E3.68147
G1 X114.169 Y86.659 E3.75379
G1 X115.207 Y87.447 E3.82150
G1 X116.092 Y88.277 E3.88454
G1 X116.815 Y89.136 E3.94290
G1 X117.374 Y90.015 E3.99701
G1 X117.770 Y90.903 E4.04752
G1 X118.005 Y91.792 E4.09534
G1 X118.086 Y92.722 E4.14380
G1 X118.086 Y177.278 E8.53735
G1 X118.005 Y178.208 E8.58581
G1 X117.770 Y179.097 E8.63363
G1 X117.374 Y179.985 E8.68414
G1 X116.815 Y180.864 E8.73825
G1 X116.092 Y181.723 E8.79661
G1 X115.207 Y182.553 E8.85965
G1 X114.169 Y183.341 E8.92736
G1 X112.986 Y184.074 E8.99968
G1 X111.669 Y184.745 E9.07648
G1 X110.233 Y185.344 E9.15730
G1 X108.693 Y185.863 E9.24175
G1 X107.063 Y186.296 E9.32938
G1 X105.361 Y186.639 E9.41961
G1 X103.605 Y186.886 E9.51175
G1 X101.811 Y187.036 E9.60527
G1 X100.000 Y187.085 E9.69943
G1 X98.189 Y187.036 E9.79358
G1 X96.395 Y186.886 E9.88710
G1 X94.639 Y186.639 E9.97924
G1 X92.937 Y186.296 E10.06947
G1 X91.307 Y185.863 E10.15710
G1 X89.766 Y185.344 E10.24155
G1 X88.331 Y184.745 E10.32237
G1 X87.014 Y184.074 E10.39917
G1 X85.831 Y183.341 E10.47149
G1 X84.792 Y182.553 E10.53920
G1 X83.908 Y181.723 E10.60224
G1 X83.185 Y180.864 E10.66060
G1 X82.626 Y179.985 E10.71471
G1 X82.230 Y179.097 E10.76522
G1 X81.995 Y178.208 E10.81304
G1 X81.914 Y177.278 E10.86150
G1 X81.914 Y92.722 E15.25505
G1 X81.995 Y91.792 E15.30351
G1 X82.230 Y90.903 E15.35133
G1 X82.626 Y90.015 E15.40184
G1 X83.185 Y89.136 E15.45595
G1 X83.908 Y88.277 E15.51431
G1 X84.792 Y87.447 E15.57735
G1 X85.831 Y86.659 E15.64506
G1 X87.014 Y85.926 E15.71738
G1 X88.331 Y85.255 E15.79418
G1 X89.767 Y84.656 E15.87500
G1 X91.307 Y84.137 E15.95945
G1 X92.937 Y83.704 E16.04708
G1 X94.639 Y83.361 E16.13731
G1 X96.395 Y83.114 E16.22945
G1 X98.189 Y82.964 E16.32297
G1 X100.000 Y82.914 E16.41713
G1 X100.292 Y82.922 E16.43228
G1 X100.361 Y82.567 F7800.000
G1 F1800
G1 X101.790 Y82.606 E16.50655
G1 X103.645 Y82.759 E16.60327
G1 X105.421 Y83.009 E16.69645
G1 X107.144 Y83.356 E16.78779
G1 X108.796 Y83.795 E16.87660
G1 X110.359 Y84.322 E16.96231
G1 X111.819 Y84.931 E17.04449
G1 X113.161 Y85.615 E17.12277
G1 X114.371 Y86.365 E17.19673
G1 X115.438 Y87.173 E17.26629
G1 X116.352 Y88.031 E17.33140
G1 X117.104 Y88.924 E17.39208
G1 X117.690 Y89.845 E17.44880
G1 X118.108 Y90.784 E17.50218
G1 X118.358 Y91.731 E17.55309
G1 X118.443 Y92.706 E17.60395
G1 X118.443 Y177.294 E21.99910
G1 X118.358 Y178.269 E22.04996
G1 X118.108 Y179.216 E22.10087
G1 X117.690 Y180.155 E22.15425
G1 X117.104 Y181.076 E22.21097
G1 X116.352 Y181.969 E22.27165
G1 X115.438 Y182.827 E22.33676
G1 X114.371 Y183.635 E22.40632
G1 X113.161 Y184.385 E22.48028
G1 X111.819 Y185.069 E22.55856
G1 X110.359 Y185.678 E22.64074
G1 X108.796 Y186.205 E22.72645
G1 X107.144 Y186.644 E22.81526
G1 X105.421 Y186.991 E22.90660
G1 X103.645 Y187.241 E22.99980
G1 X101.831 Y187.393 E23.09437
G1 X100.000 Y187.443 E23.18955
G1 X98.169 Y187.393 E23.28474
G1 X96.355 Y187.241 E23.37930
G1 X94.579 Y186.991 E23.47251
G1 X92.856 Y186.644 E23.56385
G1 X91.204 Y186.205 E23.65265
G1 X89.641 Y185.678 E23.73837
G1 X88.181 Y185.069 E23.82054
G1 X86.839 Y184.385 E23.89882
G1 X85.629 Y183.635 E23.97279
G1 X84.562 Y182.827 E24.04234
G1 X83.648 Y181.969 E24.10745
G1 X82.896 Y181.076 E24.16814
G1 X82.310 Y180.155 E24.22485
G1 X81.892 Y179.216 E24.27823
G1 X81.642 Y178.269 E24.32914
G1 X81.557 Y177.294 E24.38000
G1 X81.557 Y92.706 E28.77516
G1 X81.642 Y91.731 E28.82602
G1 X81.892 Y90.784 E28.87693
G1 X82.310 Y89.845 E28.93031
G1 X82.896 Y88.924 E28.98702
G1 X83.648 Y88.031 E29.04771
G1 X84.562 Y87.173 E29.11282
G1 X85.629 Y86.365 E29.18237
G1 X86.839 Y85.615 E29.25634
G1 X88.181 Y84.931 E29.33462
G1 X89.641 Y84.322 E29.41680
G1 X91.204 Y83.795 E29.50251
G1 X92.856 Y83.356 E29.59132
G1 X94.579 Y83.009 E29.68265
G1 X96.355 Y82.759 E29.77586
G1 X98.169 Y82.607 E29.87043
G1 X100.000 Y82.557 E29.96561
G1 X100.301 Y82.566 E29.98127
G1 X100.371 Y82.210 F7800.000
G1 F1800
G1 X101.810 Y82.250 E30.05605
G1 X103.685 Y82.404 E30.15381
G1 X105.481 Y82.657 E30.24808
G1 X107.226 Y83.008 E30.34052
G1 X108.899 Y83.453 E30.43051
G1 X110.485 Y83.987 E30.51748
G1 X111.969 Y84.607 E30.60101
G1 X113.337 Y85.303 E30.68077
G1 X114.574 Y86.070 E30.75638
G1 X115.669 Y86.900 E30.82778
G1 X116.612 Y87.785 E30.89496
G1 X117.392 Y88.713 E30.95797
G1 X118.005 Y89.676 E31.01730
G1 X118.446 Y90.665 E31.07354
G1 X118.711 Y91.669 E31.12754
G1 X118.800 Y92.691 E31.18080
G1 X118.800 Y177.309 E35.57757
G1 X118.711 Y178.331 E35.63083
G1 X118.446 Y179.335 E35.68483
G1 X118.005 Y180.324 E35.74107
G1 X117.392 Y181.287 E35.80040
G1 X116.612 Y182.215 E35.86341
G1 X115.669 Y183.100 E35.93059
G1 X114.574 Y183.930 E36.00198
G1 X113.337 Y184.697 E36.07760
G1 X111.969 Y185.393 E36.15736
G1 X110.485 Y186.013 E36.24089
G1 X108.899 Y186.547 E36.32786
G1 X107.226 Y186.992 E36.41785
G1 X105.481 Y187.343 E36.51029
G1 X103.685 Y187.596 E36.60457
G1 X101.851 Y187.749 E36.70018
G1 X100.000 Y187.800 E36.79639
G1 X98.149 Y187.749 E36.89260
G1 X96.315 Y187.596 E36.98821
G1 X94.519 Y187.343 E37.08249
G1 X92.774 Y186.992 E37.17493
G1 X91.101 Y186.547 E37.26492
G1 X89.515 Y186.013 E37.35189
G1 X88.031 Y185.393 E37.43542
G1 X86.663 Y184.697 E37.51518
G1 X85.426 Y183.930 E37.59080
G1 X84.331 Y183.100 E37.66219
G1 X83.388 Y182.215 E37.72937
G1 X82.608 Y181.287 E37.79238
G1 X81.995 Y180.324 E37.85171
G1 X81.554 Y179.335 E37.90795
G1 X81.289 Y178.331 E37.96195
G1 X81.200 Y177.309 E38.01521
G1 X81.200 Y92.691 E42.41198
G1 X81.289 Y91.669 E42.46524
G1 X81.554 Y90.665 E42.51924
G1 X81.995 Y89.676 E42.57548
G1 X82.608 Y88.713 E42.63481
G1 X83.388 Y87.785 E42.69782
G1 X84.331 Y86.900 E42.76500
G1 X85.426 Y86.070 E42.83640
G1 X86.663 Y85.303 E42.91201
G1 X88.031 Y84.607 E42.99177
G1 X89.515 Y83.987 E43.07530
G1 X91.101 Y83.453 E43.16227
G1 X92.774 Y83.008 E43.25226
G1 X94.519 Y82.657 E43.34470
G1 X96.315 Y82.404 E43.43898
G1 X98.149 Y82.251 E43.53459
G1 X100.000 Y82.200 E43.63080
G1 X100.311 Y82.209 E43.64697
G1 X100.567 Y82.559 F7800.000
G1 E40.64697 F2400.00000
G92 E0
G1 Z1.200 F7800.000
G1 X96.891 Y86.945 F7800.000
G1 Z0.200 F7800.000
G1 E3.00000 F2400.00000
G1 F1800
G1 X82.132 Y101.703 E4.08791
G1 X82.132 Y102.210 E4.11432
G1 X96.442 Y87.900 E5.16912
G1 X96.345 Y88.503 E5.20095
G1 X82.132 Y102.716 E6.24865
G1 X82.132 Y103.223 E6.27505
G1 X96.334 Y89.021 E7.32195
G1 X96.404 Y89.458 E7.34500
G1 X82.132 Y103.729 E8.39705
G1 X82.132 Y104.236 E8.42345
G1 X96.494 Y89.875 E9.48210
G1 X96.666 Y90.209 E9.50171
G1 X82.132 Y104.743 E10.57302
G1 X82.132 Y105.249 E10.59943
G1 X96.838 Y90.544 E11.68341
G1 X96.929 Y90.723 E11.69389
G1 X97.048 Y90.840 E11.70259
G1 X82.132 Y105.756 E12.80208
G1 X82.132 Y106.262 E12.82848
G1 X97.302 Y91.092 E13.94673
G1 X97.557 Y91.344 E13.96540
G1 X82.132 Y106.769 E15.10240
G1 X82.132 Y107.275 E15.12881
G1 X97.861 Y91.547 E16.28820
G1 X98.197 Y91.717 E16.30786
G1 X82.132 Y107.782 E17.49209
G1 X82.132 Y108.289 E17.51849
G1 X98.534 Y91.887 E18.72756
G1 X98.575 Y91.907 E18.72993
G1 X98.960 Y91.967 E18.75024
G1 X82.132 Y108.795 E19.99069
G1 X82.132 Y109.302 E20.01709
G1 X99.398 Y92.036 E21.28982
G1 X99.588 Y92.066 E21.29984
G1 X99.928 Y92.013 E21.31780
G1 X82.132 Y109.808 E22.62960
G1 X82.132 Y110.315 E22.65601
G1 X100.529 Y91.918 E24.01210
G1 X100.601 Y91.907 E24.01588
G1 X101.499 Y91.455 E24.06833
G1 X82.132 Y110.822 E25.49596
G1 X82.132 Y111.328 E25.52236
G1 X109.022 Y84.439 E27.50450
G1 X109.401 Y84.566 E27.52534
G1 X82.132 Y111.835 E29.53540
G1 X82.132 Y112.341 E29.56181
G1 X109.780 Y84.694 E31.59980
G1 X110.158 Y84.822 E31.62064
G1 X82.132 Y112.848 E33.68656
G1 X82.132 Y113.354 E33.71297
G1 X110.521 Y84.966 E35.80560
G1 X110.878 Y85.115 E35.82579
G1 X82.132 Y113.861 E37.94476
G1 X82.132 Y114.368 E37.97117
G1 X111.236 Y85.264 E40.11649
G1 X111.593 Y85.414 E40.13667
G1 X82.132 Y114.874 E42.30834
G1 X82.132 Y115.381 E42.33474
G1 X111.932 Y85.581 E44.53144
G1 X112.268 Y85.752 E44.55107
